X:1
T:Challenge Fairy Tail
T:Challenge Fairy Tail
T:Transcripted by JellalDSlay
T:JellalDSlay
T:JellalDSlay
T:JellalDSlay
C:Fairy Tail
Z:JellalDSlay
Z:JellalDSlay
%%score { 1 | 2 }
L:1/8
Q:1/2=75
M:4/4
K:C
V:1 treble nm="Piano" snm="Pno."
V:2 bass 
V:1
!f! A2 AB cBAG | A2 GA E4 | A2 AB cBcd | edef e4 | A2 AB cBAG | A2 GA E4 | c2 dc BcBG | %7
 AGAB A2 G2 | A2 AB cBAG | A2 GA E4 | A2 AB cBcd | edef e4 | A2 AB cBAG | A2 GA E4 | c2 dc BcBG | %15
 AGAB A2 G2 | [Aa]2 AB cBAG | A2 GA [cc']2 [Bb][cc'] | [Aa]2 AB cBcd | edef e4 | [Aa]2 AB cBAG | %21
 A2 GA [cc']2 [Bb][cc'] | [ca]2 dc BcBG | AGAB A2 B2 | c2 dc e2 c2 | AcBd c2 A2 | c2 dc B2 G2 | %27
 AcBd c4 | c2 dc e2 c2 | AcBd c2 A2 | c2 dc B2 G2 | AcBd A4 | z8 | z8 | z8 | z8 | %36
[Q:1/2=40] A,3 B, C2 E,A, | G,8 | C3 D E2 A,C | B,4 D/E/F/G/ F/G/A/B/ | A3 B c2 EA | %41
 [EG]2 D2 C2 G,2 | c3 d e2 Ac | B2 B,2 C2 D2 | A3 e edeg | a2 g2 e4 | d3 e cd/c/ Bd | AGAB A2 G2 | %48
 A3 e edeg | a2 b2 e4 | d3 e cd/c/ Bd | AGAB A2 B2 | [A,A]3 [Ee] [Ee][Dd][Ee][Gg] | %53
 [Aa]2 [Gg]2 [Ee]4 | [Dd]3 [Ee] [Cc][Dd]/[Cc]/ [B,B][Dd] | [A,A][G,G][A,A][B,B] [A,A]2 [G,G]2 | %56
 [A,A]3 [Ee] [Ee][Dd][Ee][Gg] | [Aa]2 [Bb]2 [Ee]4 | [Dd]3 [Ee] [Cc][Dd]/[Cc]/ [B,B][Dd] | %59
 [A,A][G,G][A,A][B,B] [A,A]2 [B,B]2 |[Q:1/2=75] A2 AB cBAG | A2 GA E4 | A2 AB cBcd | edef e4 | %64
 A2 AB cBAG | A2 GA E4 | c2 dc BcBG | AGAB A2 B2 | [Aa]2 AB cBAG | A2 GA [cc']2 [Bb][cc'] | %70
 [Aa]2 AB cBcd | edef e4 | [Aa]2 AB cBAG | A2 GA [cc']2 [Bb][cc'] | [ca]2 dc BcBG | AGAB A2 B2 | %76
 [cc']2 [dd'][cc'] [Bb][cc'][Bb][Gg] | [Aa][Gg][Aa][Bb] [Aa]2 [Bb]2 | [Aa][Aa] [Aa]2 z2 [Aa][Aa] | %79
 [Aa]2 z2 !fermata![Aa]4 |] %80
V:2
 [A,,,A,,]6 [A,,,A,,]2 | [A,,,A,,]4 [A,,,A,,]4 | [A,,,A,,]6 [A,,,A,,]2 | [A,,,A,,]4 [A,,,A,,]4 | %4
 [A,,,A,,]6 [A,,,A,,]2 | [A,,,A,,]4 [A,,,A,,]4 | [F,,,F,,]4 [G,,,G,,]4 | %7
 [F,,,F,,]2 [G,,,G,,]2 [A,,,A,,]2 [G,,,G,,]2 | [A,,,A,,]3 [A,,,A,,] [A,,E,A,]2 [A,,,A,,][A,,,A,,] | %9
 [A,,,A,,]2 [A,,,A,,]2 [A,,E,A,]4 | [A,,,A,,]3 [A,,,A,,] [A,,E,A,]2 [A,,,A,,][A,,,A,,] | %11
 [A,,,A,,]2 [A,,,A,,]2 [A,,E,A,]4 | [A,,,A,,]3 [A,,,A,,] [A,,E,A,]2 [A,,,A,,][A,,,A,,] | %13
 [A,,,A,,]2 [A,,,A,,]2 [A,,E,A,]4 | [F,,,F,,]4 [G,,,G,,]4 | [F,,,F,,]2 [G,,,G,,]2 A,,,A,,G,,,G,, | %16
 [A,,,A,,]3 [A,,,A,,] [A,,E,A,]2 [A,,,A,,][A,,,A,,] | [A,,,A,,]3 [A,,,A,,] E4 | %18
 [A,,,A,,]3 [A,,,A,,] [A,,E,A,]2 [A,,,A,,][A,,,A,,] | [A,,,A,,]2 [A,,,A,,]2 [A,,E,A,]4 | %20
 [A,,,A,,]3 [A,,,A,,] [A,,E,A,]2 [A,,,A,,][A,,,A,,] | [A,,,A,,]3 [A,,,A,,] E4 | %22
 [F,,,F,,]4 [G,,,G,,]4 | [F,,,F,,]2 [G,,,G,,]2 [A,,,A,,]2 [G,,,G,,]2 | [A,,,A,,]4 [C,,C,]4 | %25
 [F,,,F,,]2 [G,,,G,,]2 [A,,,A,,]4 | [F,,,F,,]4 [G,,,G,,]4 | [A,,,A,,]2 [G,,,G,,]2 [A,,,A,,]4 | %28
 [A,,,A,,]4 [C,,C,]4 | [F,,,F,,]2 [G,,,G,,]2 [A,,,A,,]4 | [F,,,F,,]4 [G,,,G,,]4 | %31
 [A,,,A,,]2 [G,,,G,,]2 [A,,,A,,]4 | [A,,,A,,]3 [A,,,A,,] [A,,E,A,]2 [A,,,A,,][A,,,A,,] | %33
 [A,,,A,,]2 [A,,,A,,]2 [A,,E,A,]4 | [A,,,A,,]3 [A,,,A,,] [A,,E,A,]2 [A,,,A,,][A,,,A,,] | %35
 [A,,,A,,]2 [A,,,A,,]2 [A,,E,A,]4 | %36
 [A,,,A,,][A,,,A,,][A,,E,A,][A,,,A,,] [A,,,A,,][A,,,A,,]/[A,,,A,,]/ [A,,E,A,][A,,,A,,] | %37
 [C,,C,][C,,C,][C,G,C][C,,C,] [C,,C,][C,,C,]/[C,,C,]/ [C,G,C][C,,C,] | %38
 [F,,,F,,][F,,,F,,][F,,C,F,][F,,,F,,] [F,,,F,,][F,,,F,,]/[F,,,F,,]/ [F,,C,F,][F,,,F,,] | %39
 [G,,,G,,][G,,,G,,][G,,D,G,][G,,,G,,] [G,,,G,,][G,,,G,,]/[G,,,G,,]/ [G,,D,G,][G,,,G,,] | %40
 [A,,,A,,][A,,,A,,][A,,E,A,][A,,,A,,] [A,,,A,,][A,,,A,,]/[A,,,A,,]/ [A,,E,A,][A,,,A,,] | %41
 [C,,C,][C,,C,][C,G,C][C,,C,] [C,,C,][C,,C,]/[C,,C,]/ [C,G,C][C,,C,] | %42
 [F,,,F,,][F,,,F,,][F,,C,F,][F,,,F,,] [F,,,F,,][F,,,F,,]/[F,,,F,,]/ [F,,C,F,][F,,,F,,] | %43
 [G,,,G,,][G,,,G,,][G,,D,G,][G,,,G,,] [G,,,G,,]/[G,,,G,,]/[G,,,G,,]/[G,,,G,,]/ [G,,D,G,]/[G,,,G,,]/[G,,,G,,]/[G,,,G,,]/ | %44
 [A,,,A,,][A,,,A,,][A,,E,A,][A,,,A,,] [A,,,A,,][A,,,A,,]/[A,,,A,,]/ [A,,E,A,][A,,,A,,] | %45
 [F,,,F,,][F,,,F,,][G,,,G,,][G,,,G,,] [C,,C,][C,,C,]/[C,,C,]/ [C,G,C][C,,C,] | %46
 [F,,,F,,][F,,,F,,][F,,C,F,][F,,,F,,] [G,,,G,,][G,,,G,,]/[G,,,G,,]/ [G,,D,G,][G,,,G,,] | %47
 [F,,,F,,][F,,,F,,][G,,,G,,][G,,,G,,] [A,,,A,,][A,,,A,,]/[A,,,A,,]/ [G,,D,G,][G,,,G,,] | %48
 [A,,,A,,][A,,,A,,][A,,E,A,][A,,,A,,] [A,,,A,,][A,,,A,,]/[A,,,A,,]/ [A,,E,A,][A,,,A,,] | %49
 [F,,,F,,][F,,,F,,][G,,,G,,][G,,,G,,] [C,,C,][C,,C,]/[C,,C,]/ [C,G,C][C,,C,] | %50
 [F,,,F,,][F,,,F,,][F,,C,F,][F,,,F,,] [G,,,G,,][G,,,G,,]/[G,,,G,,]/ [G,,D,G,][G,,,G,,] | %51
 [F,,,F,,][F,,,F,,][G,,,G,,][G,,,G,,] [A,,,A,,][A,,,A,,]/[A,,,A,,]/ [G,,D,G,][G,,,G,,] | %52
 [A,,,A,,][A,,,A,,][A,,E,A,][A,,,A,,] [A,,,A,,][A,,,A,,]/[A,,,A,,]/ [A,,E,A,][A,,,A,,] | %53
 [F,,,F,,][F,,,F,,][G,,,G,,][G,,,G,,] [C,,C,][C,,C,]/[C,,C,]/ [C,G,C][C,,C,] | %54
 [F,,,F,,][F,,,F,,][F,,C,F,][F,,,F,,] [G,,,G,,][G,,,G,,]/[G,,,G,,]/ [G,,D,G,][G,,,G,,] | %55
 [F,,,F,,][F,,,F,,][G,,,G,,][G,,,G,,] [A,,,A,,][A,,,A,,]/[A,,,A,,]/ [G,,D,G,][G,,,G,,] | %56
 [A,,,A,,][A,,,A,,][A,,E,A,][A,,,A,,] [A,,,A,,][A,,,A,,]/[A,,,A,,]/ [A,,E,A,][A,,,A,,] | %57
 [F,,,F,,][F,,,F,,][G,,,G,,][G,,,G,,] [C,,C,][C,,C,]/[C,,C,]/ [C,G,C][C,,C,] | %58
 [F,,,F,,][F,,,F,,][F,,C,F,][F,,,F,,] [G,,,G,,][G,,,G,,]/[G,,,G,,]/ [G,,D,G,][G,,,G,,] | %59
 [F,,,F,,][F,,,F,,][G,,,G,,][G,,,G,,] [A,,,A,,][A,,,A,,]/[A,,,A,,]/ [G,,D,G,][G,,,G,,] | %60
 [A,,,A,,]3 [A,,,A,,] [A,,E,A,]2 [A,,,A,,][A,,,A,,] | %61
 [A,,,A,,][A,,,A,,][A,,,A,,][A,,,A,,] [A,,E,A,]4 | %62
 [A,,,A,,]3 [A,,,A,,] [A,,E,A,]2 [A,,,A,,][A,,,A,,] | %63
 [A,,,A,,][A,,,A,,][A,,,A,,][A,,,A,,] [A,,E,A,]4 | %64
 [A,,,A,,]3 [A,,,A,,] [A,,E,A,]2 [A,,,A,,][A,,,A,,] | %65
 [A,,,A,,][A,,,A,,][A,,,A,,][A,,,A,,] [A,,E,A,]4 | [F,,,F,,]4 [G,,,G,,]4 | %67
 [F,,,F,,]2 [G,,,G,,]2 [A,,,A,,]2 [G,,,G,,]2 | [A,,,A,,]3 [A,,,A,,] [A,,E,A,]2 [A,,,A,,][A,,,A,,] | %69
 [A,,,A,,][A,,,A,,][A,,,A,,][A,,,A,,] [A,,E,A,]4 | %70
 [A,,,A,,]3 [A,,,A,,] [A,,E,A,]2 [A,,,A,,][A,,,A,,] | %71
 [A,,,A,,][A,,,A,,][A,,,A,,][A,,,A,,] [A,,E,A,]4 | %72
 [A,,,A,,]3 [A,,,A,,] [A,,E,A,]2 [A,,,A,,][A,,,A,,] | %73
 [A,,,A,,][A,,,A,,][A,,,A,,][A,,,A,,] [A,,E,A,]4 | [F,,,F,,]4 [G,,,G,,]4 | %75
 [F,,,F,,]2 [G,,,G,,]2 [A,,,A,,]2 [G,,,G,,]2 | [F,,,F,,]4 [G,,,G,,]4 | %77
 [F,,,F,,][F,,,F,,][G,,,G,,][G,,,G,,] [A,,,A,,][A,,,A,,][G,,,G,,][G,,,G,,] | %78
 [A,,A,][A,,A,] [A,,A,]2 z2 [A,,A,][A,,A,] | [A,,A,]2 z2 !fermata![A,,A,]4 |] %80

